assets/src/images/icons/ic_monitor.svg

<svg width="50" height="50" viewBox="0 0 50 50" fill="none" xmlns="http://www.w3.org/2000/svg">
<path fill-rule="evenodd" clip-rule="evenodd" d="M47.5806 16.129H46.7742V6.45161H8.06452V0H4.03226C1.809 0 0 1.809 0 4.03226V34.6774C0 36.9007 1.809 38.7097 4.03226 38.7097H25.8065V47.5806C25.8065 48.9144 26.8921 50 28.2258 50H47.5806C48.9144 50 50 48.9144 50 47.5806V18.5484C50 17.2147 48.9144 16.129 47.5806 16.129ZM1.6129 4.03226C1.6129 2.69854 2.69854 1.6129 4.03226 1.6129H6.45161V30.6452H4.03226C3.125 30.6452 2.28705 30.9468 1.6129 31.4532V4.03226ZM4.03226 37.0968C2.69854 37.0968 1.6129 36.0111 1.6129 34.6774C1.6129 33.3437 2.69854 32.2581 4.03226 32.2581H8.06452V8.06452H45.1613V16.129H28.4759C27.1217 12.3007 23.4631 9.67742 19.3548 9.67742C14.0184 9.67742 9.67742 14.0184 9.67742 19.3548C9.67742 24.6913 14.0184 29.0323 19.3548 29.0323C21.758 29.0323 24.0482 28.1297 25.8065 26.5574V37.0968H4.03226ZM25.8065 18.5484H20.1613V11.3356C23.2008 11.6428 25.8348 13.6612 26.9082 16.5244C26.2459 16.9564 25.8065 17.701 25.8065 18.5484ZM18.5484 27.3784C14.4791 26.9724 11.2903 23.5289 11.2903 19.3548C11.2903 15.1808 14.4791 11.7373 18.5484 11.3313V27.3784ZM20.1613 20.1613H25.8065V24.1758C24.4483 25.9896 22.3968 27.1445 20.1613 27.3701V20.1613ZM48.3871 47.5806C48.3871 48.0248 48.0248 48.3871 47.5806 48.3871H28.2258C27.7816 48.3871 27.4194 48.0248 27.4194 47.5806V18.5484C27.4194 18.1042 27.7816 17.7419 28.2258 17.7419H47.5806C48.0248 17.7419 48.3871 18.1042 48.3871 18.5484V47.5806ZM29.0323 27.4194H46.7742V19.3548H29.0323V27.4194ZM30.6452 20.9677H45.1613V25.8065H30.6452V20.9677ZM46.7742 46.7742H41.9355V41.9355H46.7742V46.7742ZM45.1613 43.5484H43.5484V45.1613H45.1613V43.5484ZM35.4839 46.7742H40.3226V41.9355H35.4839V46.7742ZM37.0968 43.5484H38.7097V45.1613H37.0968V43.5484ZM33.871 46.7742H29.0323V41.9355H33.871V46.7742ZM32.2581 43.5484H30.6452V45.1613H32.2581V43.5484ZM41.9355 40.3226H46.7742V35.4839H41.9355V40.3226ZM43.5484 37.0968H45.1613V38.7097H43.5484V37.0968ZM40.3226 40.3226H35.4839V35.4839H40.3226V40.3226ZM38.7097 37.0968H37.0968V38.7097H38.7097V37.0968ZM29.0323 40.3226H33.871V35.4839H29.0323V40.3226ZM30.6452 37.0968H32.2581V38.7097H30.6452V37.0968ZM46.7742 33.871H41.9355V29.0323H46.7742V33.871ZM45.1613 30.6452H43.5484V32.2581H45.1613V30.6452ZM35.4839 33.871H40.3226V29.0323H35.4839V33.871ZM37.0968 30.6452H38.7097V32.2581H37.0968V30.6452ZM33.871 33.871H29.0323V29.0323H33.871V33.871ZM32.2581 30.6452H30.6452V32.2581H32.2581V30.6452ZM32.2581 9.67742H43.5484V11.2903H32.2581V9.67742ZM43.5484 12.9032H30.6452V14.5161H43.5484V12.9032Z" fill="#0090A1"/>
</svg>

<svg width="50" height="50" viewBox="0 0 50 50" fill="none" xmlns="http://www.w3.org/2000/svg"><path fill-rule="evenodd" clip-rule="evenodd" d="M47.58 16.129h-.806V6.452H8.064V0H4.033A4.037 4.037 0 000 4.032v30.645a4.037 4.037 0 004.032 4.033h21.774v8.87a2.422 2.422 0 002.42 2.42H47.58A2.422 2.422 0 0050 47.58V18.549a2.423 2.423 0 00-2.42-2.419zM1.614 4.032a2.423 2.423 0 012.42-2.42h2.419v29.033h-2.42c-.907 0-1.745.302-2.42.808V4.033zm2.42 33.065a2.423 2.423 0 01-2.42-2.42 2.422 2.422 0 012.42-2.419h4.032V8.065H45.16v8.064H28.476c-1.354-3.828-5.013-6.452-9.121-6.452-5.337 0-9.678 4.341-9.678 9.678 0 5.336 4.341 9.677 9.678 9.677a9.687 9.687 0 006.451-2.475v10.54H4.032zm21.773-18.549h-5.645v-7.212a8.093 8.093 0 016.747 5.188 2.414 2.414 0 00-1.102 2.024zm-7.258 8.83c-4.069-.406-7.258-3.85-7.258-8.023 0-4.174 3.19-7.618 7.258-8.024v16.047zm1.613-7.217h5.645v4.015a8.07 8.07 0 01-5.645 3.194v-7.209zm28.226 27.42a.808.808 0 01-.806.806H28.226a.808.808 0 01-.807-.806V18.548c0-.444.363-.806.807-.806H47.58c.444 0 .806.362.806.806v29.033zM29.032 27.419h17.742v-8.064H29.032v8.064zm1.613-6.451h14.516v4.838H30.645v-4.838zm16.13 25.806h-4.84v-4.839h4.84v4.84zm-1.614-3.226h-1.613v1.613h1.613v-1.613zm-9.677 3.226h4.839v-4.839h-4.84v4.84zm1.613-3.226h1.613v1.613h-1.613v-1.613zm-3.226 3.226h-4.839v-4.839h4.839v4.84zm-1.613-3.226h-1.613v1.613h1.613v-1.613zm9.677-3.225h4.84v-4.84h-4.84v4.84zm1.613-3.226h1.613v1.613h-1.613v-1.613zm-3.225 3.226h-4.84v-4.84h4.84v4.84zm-1.613-3.226h-1.613v1.613h1.613v-1.613zm-9.678 3.226h4.839v-4.84h-4.839v4.84zm1.613-3.226h1.613v1.613h-1.613v-1.613zm16.13-3.226h-4.84v-4.839h4.84v4.839zm-1.614-3.226h-1.613v1.613h1.613v-1.613zm-9.677 3.226h4.839v-4.839h-4.84v4.839zm1.613-3.226h1.613v1.613h-1.613v-1.613zm-3.226 3.226h-4.839v-4.839h4.839v4.839zm-1.613-3.226h-1.613v1.613h1.613v-1.613zm0-20.968h11.29v1.613h-11.29V9.677zm11.29 3.226H30.645v1.613h12.903v-1.613z" fill="#0090A1"/></svg>
